X:7919
T:Leezie Lindsay
C:anon.
O:Scotland
Z:Transcribed by Frank Nordberg - http://www.musicaviva.com
F:http://abc.musicaviva.com/tunes/scotland/leezie-lindsay.abc
M:3/4
L:1/8
K:C
"^Andante"GG|(c3de2)|(g2e2)de|(d2c2)GG|(c3de2|g2e2g2|a4)(bc')|
(c3de2)|(g2e2)dc|(d2e2)g2|(a2c'2a2)|(g2e2)(dc)|c6-|c z z2 z2|]
W:
W:
W:  From Musica Viva - http://www.musicaviva.com
W:  the Internet center for free sheet music downloads.
